X: 37855
T: Sorefingers' Rant
R: hornpipe
M: 4/4
K: Gmajor
(3d2c2=c2||B3G D3G|B3G d3B|(3g2f2g2 (3a2g2f2|g3d B3G|
( F3E) F3G|A3B (3=c2B2A2|d3c d3e|f3d =c3A|
B3G D3G|B3G d3B|(3g2f2g2 (3a2g2f2|g3d B3G|
(3A2B2=c2 A3F|D3E F3G|A3G G3F|G4 (3d2c2=c2:|

